X:1
T:Trio No. 6
T:Trio No. 6
T:Trios No. 6 & 10
T:from "12 Trios for Organ" Op. 39 arr. for Flute, Violin and Cello 
T:Josef Renner jun. (1868-1934)
T:Arrangement by Felix Scharpf
T:twoflutes 2019 / Felix Scharpf / https://commons.wikimedia.org/wiki/File:Paula_Modersohn-Becker_014.jpg
T:twoflutes 2019 / Felix Scharpf / https://commons.wikimedia.org/wiki/File:Paula_Modersohn-Becker_014.jpg
T:twoflutes 2019 / Felix Scharpf / https://commons.wikimedia.org/wiki/File:Paula_Modersohn-Becker_014.jpg
T:twoflutes 2019 / Felix Scharpf / https://commons.wikimedia.org/wiki/File:Paula_Modersohn-Becker_014.jpg
T:twoflutes 2019 / Felix Scharpf / https://commons.wikimedia.org/wiki/File:Paula_Modersohn-Becker_014.jpg
C:Josef Renner jun. (1868-1934)
Z:twoflutes 2019 / Felix Scharpf / https://commons.wikimedia.org/wiki/File:Paula_Modersohn-Becker_014.jpg
%%score [ 1 2 3 ]
L:1/8
Q:1/2=70
M:4/4
K:Bb
V:1 treble nm="Flute" snm="Fl."
V:2 treble nm="Violin" snm="Vl."
V:3 bass nm="Cello" snm="Vc."
V:1
"^Trio No. VI Allegretto"!mf! (d8 | e2 =B2 c4- | c4) (^c4 | d2 A2 B4- | B2) (A2 B2 =B2 | c4 G4 | %6
 A6) (Bc | d4) (g2 b2 | a8 | b2 d2 e4- | e2) (d2 c2 =B2 | c2 G2 _A2 _a2- | a2) (=a2 b4- | %13
 b2) (d2 e2 =B2 | c2 B2 _A2 =A2 | (B6 =B2)) | (c6 ^c2) | (d4- de=e^f) | (g6 G2) | (g4 ^fgab) | %20
 (c'2 b2 a4) | (b4 B4) | c6!>(! (Bc |[Q:1/2=55] d8-[Q:1/2=45] |!mp! d8)!>)! |] %25
[K:D][M:3/4][Q:1/4=100]"^Trio No. X Andante"!mf! (B2 b2 ge) | (d>efbag | f3) (^A Bc | e d2) (B cd | %29
 f e2 d2 c- | cB ^A) z2 z | (B2 b2 ge) | (dcd^dec | fedcBe) | (A2 a2 fd) | (c=c^cgdf) | %36
 (ed c2) (e=f | ^fe ^d2) (fb | g B2) (g e=f | ^f A2) (f d^d | e G2) (e cf | ^d4 cd) | %42
 (e2 e'2 =c'a) | (gfg^ga=c') | (d2 d'2 bg) | (f=f^fdgb) | (a^gab=c'=c) | (B3 =c d2) | %48
 (=cd^de=f^f) | (g2 G2 g2) | (fg^ga^ac') | (b2 B2 b2- | b2) B2 ^A2 | (B2 b2 ge) | (d>efbag | %55
 f3) (^A Bc | e d2) (d ef | gcfBe^A | d^G c2) (fe | de f b2 g | cd e a2 f- | f)(egfag) | %62
 (f2 F2 ^Ac) | (B2 b2 ge) | (dBd^deg) | (f2 bagf) | %66
[Q:1/4=95]"_dim." (e^d[Q:1/4=90]fe[Q:1/4=85]ag) |[Q:1/4=80] (f2[Q:1/4=60] F2 Ee |!p! ^d6) |] %69
V:2
!mf! (B2 A2 G2 F2 | E2 D2 C2 B2) | (A2 G2 F2 E2 | D2 C2 B,2 _A2) | (G2 F2 E2 D2 | E2 D2 C2 B,2 | %6
 A,2 G2) (F2 E2 | D2 c2) (B2 G2 | D2 e2) (d2 c2 | B2 _A2 G2 F2 | E2 F2 E2 _D2 | C2 _D2 E2 =E2 | %12
 F2) (e2 d2 c2 | B2 _A2 G2 F2 | E2 _D2 C2 F2) | (B,2 _A,2 G,2 F2) | (E2 =E2 F2 G2 | F2 E2 D2 c2) | %18
 (B2 _A2 G2) (f2 | e2 d2 c2 B2 | A2 G2 F2 E2 | D2) (F2 E2 D2 | C2 B,2 A,2)!>(! (G,A, | %23
 B,2 DE F2 =EG |!mp! F8)!>)! |][K:D][M:3/4]!mp! (DCD^DEG) | (FE D2 CB, | ^A,C E4) | (B,DFDEF) | %29
 (GCFCE^A,) | (D^G,C=F^FE) | (DCD^DEG) | (B2 b2 ge) | (dc B A2 ^G) | (AB,=C^CDF) | (A2 a2 fd) | %36
 (cBABcB) | (^A2 =AFE^D) | (E2 e2 cA) | (D2 d2 BG) | (C2 c2 ^AF- | F)(cBAGF | GFG^GA=c) | %43
 (e2 e'2 =c'a) | (f=f^fdgb) | (d2 d'2 bg- | g4) f2 | (gfgabB- | B2) (^A2 =A2 | B=c^cd^de- | %50
 e2) (d2 ce) | d(cdefa | gfegfe) | (dcB^DEG | FE D2 CB, | ^A,C E4) | (B,DFB,CD) | (F E2 D2 C- | %58
 CB,^A,=A,^A,C) | (B,CD^DEB,) | (EB,=C^CDA, | B,6) | (DCEDCE) | (DB,D^DEG) | (B2 b2 ge- | %65
 e)(^dc=deB) |"_dim." (G2 B3 c) | (^d=d^dAGC |!p! F6) |] %69
V:3
!mf! (B,4 =B,4) | (C2 G,2 E,2 =E,2) | (F,4 A,4) | (B,2 F,2 D,4) | (E,4 G,4) | (C,4 E,2 =E,2 | %6
 F,6) (G,A, | B,2 A,2 G,4) | ^F,6 (=E,F, | G,2 F,2 E,2 D,2 | C,4) (G,4 | _A,2 B,2 C4) | %12
 (_D2 C2 B,2 _A,2 | G,2 F,2) (C,2 D,2 | E,2 =E,2 F,2 _E,2 | D,4) (E,2 D,2 | C,2) (C2 A,4) | %17
 (D2 C2 B,2 A,2 | G,2 F,2 E,2) (=B,2 | C2 B,2 A,2 G,2 | F,6) (^F,2 | G,6) (F,2 | E,2 =E,2 F,4 | %23
 B,,8- |!mp! B,,8) |][K:D][M:3/4]!mp! B,6- | B,4 E,2 | F,6 | F,6- | F,6- | F,4 ^A,2 | B,6 | B,6- | %33
 B,CD^DEE, | A,6 | A,6 | A,4 G,2 | F,2 B,4- | B,2 G,2 A,2- | A,2 F,2 G,2- | G,2 E,2 F,2 | B,,6 | %42
 E,6 | E4- E^D | D6- | D4- DC | =C2 ^D2 =D2- | D2 D,4 | D,4 D2 | G,2 B,2 =C2 | D2 F,2[K:alto] F2 | %51
 G4 ^D2 | E2 C2 F,2 | B,6- | B,4[K:bass] E,2 | F,6 | F,6- | F,6- | F,6 | B,,2 B,2 G,E, | %60
 A,,2 A,2 F,D, | G,2 ^D,2 E,=F, | F,6 | B,,6 | B,,4 z2 | B,,4 B,2- |"_dim." B,2 G,2 E,2 | B,,6- | %68
!p! B,,6 |] %69

